!!!SOCIAL_FUNCTION:	moccasin game songs
!!!PDT:	1913
!!!OTL: No_162_The_Sound_of_His_Footsteps.krn
!!!REG: Great_Lakes
!!!LANG: Non-Tone
!!!LING_GROUP: Algonquin
**kern	**kern
*staff2	*staff1
=1-	=1-
*clefF4	*clefF4
*k[b-e-a-]	*k[b-e-a-]
*M3/8	*M3/8
8GG^/	4e-\
16r	.
16GG/LK	.
8GG^/J	8B-\
=2	=2
16r	4e-\
16GG/LK	.
8GG^/J	.
16r	8f\
16GG/	.
=3	=3
4.r	8e-\
.	4e-\
=4||	=4||
*M2/8	*M2/8
4r	8f\L
.	8e-\J
=5||	=5||
*M3/8	*M3/8
4.r	8e-\
.	4B-\
=6	=6
4.r	4B-\
.	8F\
=7	=7
4.r	4B-\
.	8e-\
=8	=8
4.r	8B-\
.	4B-\
=9||	=9||
*M2/8	*M2/8
4r	4e-\
=10||	=10||
*M3/8	*M3/8
4.r	8B-\
.	4F\
=11	=11
4.r	4F\
.	8E-\
=12	=12
4.r	4F\
.	8B-\
=13	=13
4.r	8F\
.	4F\
=14||	=14||
*M2/8	*M2/8
4r	8G\L
.	8G\J
=15||	=15||
*M3/8	*M3/8
4.r	8F\
.	4E-\
=16	=16
4.r	4E-\
.	8BB-/
=17	=17
4.r	4E-\
.	8F\
=18	=18
4.r	8E-\
.	4E-\
=19	=19
4.r	8E-\
.	4E-\
=20	=20
4.r	4.BB-/
=21	=21
4.r	4.BB-/
=22||	=22||
*M2/8	*M2/8
4r	8B-\L
.	8B-\J
=23	=23
4r	8.B-\L
.	16F\Jk
=24||	=24||
*M3/8	*M3/8
4.r	8B-\L
.	8B-\
.	16.e-\L
.	32e-\JJk
=25||	=25||
*M2/8	*M2/8
4r	8G\L
.	8G\J
=26	=26
4r	4e-\
=27||	=27||
*M3/8	*M3/8
4.r	4B-\
.	8F\
=28	=28
4.r	4F\
.	8E-\
=29	=29
4.r	4F\
.	8B-\
=30	=30
4.r	8F\
.	4F\
=31||	=31||
*M2/8	*M2/8
4r	8G\L
.	8G\J
=32||	=32||
*M3/8	*M3/8
4.r	8F\
.	4E-\
=33	=33
4.r	4E-\
.	8BB-/
=34	=34
4.r	4E-\
.	8F\
=35	=35
4.r	8E-\
.	4E-\
=36	=36
4.r	4.BB-/
=37	=37
4.r	4.BB-/
==	==
*-	*-
